src/assets/home_other/arrow-right-dotted.svg

<svg height="157" viewBox="0 0 109 157" width="109" xmlns="http://www.w3.org/2000/svg"><path d="m39.614947 2.05295093.1950913.18834307 62.8946647 62.8946651c7.272745 7.2727444 7.360368 19.0075299.262871 26.3877933l-.262871.2680508-62.8946647 62.8946648c-2.9521032 2.952103-7.7384081 2.952103-10.6905112 0-2.887927-2.887927-2.9507081-7.531174-.1883431-10.49542l.1883431-.195091 62.894665-62.894665c1.4069808-1.4069807 1.4554974-3.6558819.1455498-5.1209262l-.1455498-.1538955-62.894665-62.8946651c-2.9521032-2.95210314-2.9521032-7.73840805 0-10.6905112 2.887927-2.88792701 7.5311746-2.95070803 10.4954199-.18834307zm9.526102 66.98533047c5.2066665 0 9.4266664 4.2199999 9.4266664 9.4253331 0 5.2066665-4.2199999 9.4266664-9.4266664 9.4266664-5.2053332 0-9.4253331-4.2199999-9.4253331-9.4266664 0-5.2053332 4.2199999-9.4253331 9.4253331-9.4253331zm-39.54293238 0c5.20533318 0 9.42666638 4.2199999 9.42666638 9.4253331 0 5.2066665-4.2213332 9.4266664-9.42666638 9.4266664-5.20666654 0-9.42666643-4.2199999-9.42666643-9.4266664 0-5.2053332 4.21999989-9.4253331 9.42666643-9.4253331z" fill="#9fd9aa"/></svg>

<?xml version="1.0" encoding="UTF-8"?>
<svg width="109px" height="157px" viewBox="0 0 109 157" version="1.1" xmlns="http://www.w3.org/2000/svg" xmlns:xlink="http://www.w3.org/1999/xlink">
    <title>arrow-right-dotted</title>
    <g id="Page-1" stroke="none" stroke-width="1" fill="none" fill-rule="evenodd">
        <path d="M39.614947,2.05295093 L39.8100383,2.241294 L102.704703,65.1359591 C109.977448,72.4087035 110.065071,84.143489 102.967574,91.5237524 L102.704703,91.7918032 L39.8100383,154.686468 C36.8579351,157.638571 32.0716302,157.638571 29.1195271,154.686468 C26.2316001,151.798541 26.168819,147.155294 28.931184,144.191048 L29.1195271,143.995957 L92.0141921,81.101292 C93.4211729,79.6943113 93.4696895,77.4454101 92.1597419,75.9803658 L92.0141921,75.8264703 L29.1195271,12.9318052 C26.1674239,9.97970206 26.1674239,5.19339715 29.1195271,2.241294 C32.0074541,-0.646633005 36.6507017,-0.709414027 39.614947,2.05295093 Z M49.141049,69.0382814 C54.3477155,69.0382814 58.5677154,73.2582813 58.5677154,78.4636145 C58.5677154,83.670281 54.3477155,87.8902809 49.141049,87.8902809 C43.9357158,87.8902809 39.7157159,83.670281 39.7157159,78.4636145 C39.7157159,73.2582813 43.9357158,69.0382814 49.141049,69.0382814 Z M9.59811662,69.0382814 C14.8034498,69.0382814 19.024783,73.2582813 19.024783,78.4636145 C19.024783,83.670281 14.8034498,87.8902809 9.59811662,87.8902809 C4.39145008,87.8902809 0.171450187,83.670281 0.171450187,78.4636145 C0.171450187,73.2582813 4.39145008,69.0382814 9.59811662,69.0382814 Z" id="arrow-right-dotted" fill="#9FD9AA" fill-rule="nonzero"></path>
    </g>
</svg>
